X:624
T:Reel 624
M:4/4
K:Gmaj
L:1/8
G2BG EGDC|B,DGB AGAB|c2ec BGBd|cBAG FDEF|G2BG EGDC|B,DGB AGAB|cdef gfge|dcBA G2z2|||BGeG fdec|BGdB cAFA|Bcde dcBc|dBcA G2G2|Bdef  (3eee dB|BcdB ABcA|Bdef gfec|BGAF G2z2|
